packages/kaspersky-hexa-ui-icons/src/iconsSVGs/24/CancelExecutionPrevention.svg

<svg width="24" height="24" viewBox="0 0 24 24" fill="none" xmlns="http://www.w3.org/2000/svg">
<path d="M10.8273 10.1449C10.6262 10.0288 10.3784 10.0288 10.1773 10.1449C9.97618 10.2611 9.85229 10.4756 9.85229 10.7079V14.9923C9.85229 15.2245 9.97618 15.4391 10.1773 15.5552C10.3784 15.6713 10.6262 15.6713 10.8273 15.5552L14.5377 13.413C14.7389 13.2969 14.8627 13.0823 14.8627 12.8501C14.8627 12.6179 14.7389 12.4033 14.5377 12.2872L10.8273 10.1449Z" fill="black"/>
<path fill-rule="evenodd" clip-rule="evenodd" d="M10.2179 2.8501C9.7181 2.8501 9.29505 3.21912 9.22717 3.7143L8.93345 5.85725C8.32477 6.11064 7.75664 6.44096 7.24112 6.83582L5.23587 6.01873C4.77317 5.83019 4.24231 6.0121 3.99249 6.4448L2.36915 9.25652C2.11925 9.68936 2.2273 10.2403 2.62221 10.5466L4.33255 11.8735C4.29131 12.1935 4.27008 12.5194 4.27008 12.8498C4.27008 13.1807 4.29137 13.5071 4.33273 13.8275L2.62341 15.1549C2.22878 15.4613 2.12089 16.012 2.37071 16.4447L3.99405 19.2564C4.24396 19.6893 4.77507 19.8711 5.23785 19.6823L7.24208 18.8646C7.75732 19.2591 8.3251 19.5892 8.93337 19.8424L9.22717 21.9859C9.29505 22.4811 9.7181 22.8501 10.2179 22.8501H13.4646C13.9642 22.8501 14.3872 22.4813 14.4553 21.9863L14.7501 19.8422C15.3583 19.589 15.926 19.259 16.4411 18.8645L18.4459 19.6825C18.9087 19.8713 19.4398 19.6894 19.6897 19.2566L21.313 16.4448C21.5628 16.0121 21.4549 15.4615 21.0603 15.155L19.3504 13.8272C19.3918 13.5069 19.413 13.1806 19.413 12.8498C19.413 12.5195 19.3918 12.1937 19.3506 11.8738L21.0616 10.5465C21.4565 10.2401 21.5645 9.68921 21.3146 9.25637L19.6913 6.44465C19.4415 6.01195 18.9106 5.83004 18.4479 6.01858L16.4421 6.83589C15.9267 6.44108 15.3586 6.1108 14.7501 5.85741L14.4553 3.71385C14.3872 3.21888 13.9642 2.8501 13.4646 2.8501H10.2179ZM10.7477 7.34886L11.0902 4.8501H12.5927L12.9364 7.34909L13.5372 7.54078C14.3069 7.78638 15.005 8.1954 15.5903 8.72809L16.0567 9.15258L18.3952 8.19973L19.1464 9.50094L17.1531 11.0474L17.2866 11.6631C17.3693 12.0446 17.413 12.4416 17.413 12.8498C17.413 13.2584 17.3692 13.6556 17.2864 14.0374L17.1529 14.653L19.145 16.1999L18.3938 17.5011L16.0564 16.5475L15.5898 16.9721C15.0046 17.5045 14.3067 17.9133 13.5372 18.1589L12.9365 18.3506L12.5927 20.8501H11.0902L10.7476 18.3508L10.1465 18.159C9.37678 17.9135 8.67871 17.5047 8.09342 16.9721L7.62679 16.5476L5.28996 17.501L4.5387 16.1998L6.53031 14.6532L6.39676 14.0377C6.31391 13.6558 6.27008 13.2585 6.27008 12.8498C6.27008 12.4415 6.31385 12.0445 6.39658 11.6628L6.53008 11.0471L4.53734 9.5011L5.2886 8.19988L7.62648 9.1525L8.09288 8.72802C8.6783 8.19523 9.37658 7.78617 10.1465 7.5406L10.7477 7.34886Z" fill="black"/>
</svg>

<svg xmlns="http://www.w3.org/2000/svg" width="24" height="24" fill="none" viewBox="0 0 24 24"><path fill="#000" d="M10.8273 10.1449a.65.65 0 0 0-.975.563v4.2844a.65.65 0 0 0 .975.5629l3.7104-2.1422a.6498.6498 0 0 0 0-1.1258z"/><path fill="#000" fill-rule="evenodd" d="M10.2179 2.8501a1 1 0 0 0-.9907.8642l-.2937 2.143a7.57 7.57 0 0 0-1.6924.9785l-2.0052-.817a1 1 0 0 0-1.2434.426L2.369 9.2565a1 1 0 0 0 .2531 1.2901l1.7104 1.3269a7.6 7.6 0 0 0-.0625.9763c0 .3309.0213.6573.0626.9777l-1.7093 1.3274a1 1 0 0 0-.2527 1.2898l1.6234 2.8117a1 1 0 0 0 1.2438.4259l2.0042-.8177a7.56 7.56 0 0 0 1.6913.9778l.2938 2.1435a1 1 0 0 0 .9907.8642h3.2467a1 1 0 0 0 .9907-.8638l.2948-2.1441a7.56 7.56 0 0 0 1.691-.9777l2.0048.818a1 1 0 0 0 1.2438-.4259l1.6233-2.8118a1 1 0 0 0-.2527-1.2898l-1.7099-1.3278a7.6 7.6 0 0 0 .0626-.9774c0-.3303-.0212-.6561-.0624-.976l1.711-1.3273a1 1 0 0 0 .253-1.2901l-1.6233-2.8117a1 1 0 0 0-1.2434-.4261l-2.0058.8173a7.57 7.57 0 0 0-1.692-.9785l-.2948-2.1436a1 1 0 0 0-.9907-.8637zm.5298 4.4988.3425-2.4988h1.5025l.3437 2.499.6008.1917a5.565 5.565 0 0 1 2.0531 1.1873l.4664.4245 2.3385-.9529.7512 1.3012-1.9933 1.5465.1335.6157c.0827.3815.1264.7785.1264 1.1867 0 .4086-.0438.8058-.1266 1.1876l-.1335.6156 1.9921 1.5469-.7512 1.3012-2.3374-.9536-.4666.4246a5.57 5.57 0 0 1-2.0526 1.1868l-.6007.1917-.3438 2.4995h-1.5025l-.3426-2.4993-.6011-.1918a5.56 5.56 0 0 1-2.053-1.1869l-.4667-.4245-2.3368.9534-.7513-1.3012 1.9916-1.5466-.1335-.6155a5.6 5.6 0 0 1-.1267-1.1879c0-.4083.0438-.8053.1265-1.187l.1335-.6157-1.9928-1.546.7513-1.3012 2.3379.9526.4664-.4245a5.565 5.565 0 0 1 2.0536-1.1874z" clip-rule="evenodd"/></svg>
